X:1
T:[ID 4-51r]
T:[ID 4-51r]
T:Bezeichnung standardisiert: Menuet [mit Trio] Menuet Con Trio No 1. ex F In dieser Quelle auch als: Menuetto
T:Urheber unbekannt Datum in der hier transkribierten schriftlichen Quelle: 1792
C:Urheber unbekannt
C:Datum in der hier transkribierten schriftlichen Quelle: 1792
L:1/8
M:3/4
K:F
V:1 treble 
V:1
 c2 | (fa)(fa)(fa) | b4 ge | (fa)(fa)(fa) | g2 c2 c2 | (fa)(fa)(fa) | b4 ge | fgabge | f6 :: ab | %10
 c'4 d'c' | c'bbaab | c'2 c'2 d'c' | c'bba a2 | (fa)(fa)(fa) | b4 ge | fgabge | f6 :| %18
[M:3/4]"^Trio" f4 g2 | a3 b c'2 | a3 b c'2 | c'b a2 g2 | f4 g2 | a3 b c'2 | c'2 (c'b)(ba) | g6 :: %26
 a2 (ag)(gf) | f4 z2 | b2 (ba)(ag) | g4 z2 | c'2 c'2 c'2 | d'3 c' b2 | abagfe | f4 x2 :| %34

